( Made using CamBam - http://www.cambam.co.uk )
( LoginNFC case mm 2/25/2016 8:53:39 PM )
( T2 : 2.0 )
G21 G90 G91.1 G64 G40
G0 Z3.0
( T2 : 2.0 )
T2 M6
( Cutout )
G17
M3 S1000
G0 X3.571 Y3.7335
G0 Z1.0
G1 F50.0 Z0.0
G2 F200.0 X3.6845 Y4.0273 Z-0.2591 I0.239 J0.0765
G2 X4.061 Y3.81 Z-0.6591 I0.1255 J-0.2173
G2 X3.6845 Y3.5927 Z-1.0591 I-0.251 J0.0
G2 X3.571 Y3.7335 Z-1.2 I0.1255 J0.2173
G2 X3.6845 Y4.0273 Z-1.4591 I0.239 J0.0765
G2 X4.061 Y3.81 Z-1.8591 I0.1255 J-0.2173
G2 X3.6845 Y3.5927 Z-2.2591 I-0.251 J0.0
G2 X3.571 Y3.7335 Z-2.4 I0.1255 J0.2173
G2 X3.6845 Y4.0273 Z-2.6591 I0.239 J0.0765
G2 X4.061 Y3.81 Z-3.0591 I0.1255 J-0.2173
G2 X3.6845 Y3.5927 Z-3.4591 I-0.251 J0.0
G2 X3.571 Y3.7335 Z-3.6 I0.1255 J0.2173
G2 X3.6845 Y4.0273 I0.239 J0.0765
G2 X4.061 Y3.81 I0.1255 J-0.2173
G2 X3.6845 Y3.5927 I-0.251 J0.0
G2 X3.571 Y3.7335 I0.1255 J0.2173
G0 Z3.0
G0 X8.6601 Y3.7926
G0 Z1.0
G1 F50.0 Z0.0
G2 F200.0 X9.41 Y5.109 Z-0.2022 I1.4999 J0.0174
G2 X11.66 Y3.81 Z-0.6022 I0.75 J-1.299
G2 X9.41 Y2.511 Z-1.0022 I-1.5 J0.0
G2 X8.6601 Y3.7926 Z-1.2 I0.75 J1.299
G2 X9.41 Y5.109 Z-1.4022 I1.4999 J0.0174
G2 X11.66 Y3.81 Z-1.8022 I0.75 J-1.299
G2 X9.41 Y2.511 Z-2.2022 I-1.5 J0.0
G2 X8.6601 Y3.7926 Z-2.4 I0.75 J1.299
G2 X9.41 Y5.109 Z-2.6022 I1.4999 J0.0174
G2 X11.66 Y3.81 Z-3.0022 I0.75 J-1.299
G2 X9.41 Y2.511 Z-3.4022 I-1.5 J0.0
G2 X8.6601 Y3.7926 Z-3.6 I0.75 J1.299
G2 X9.41 Y5.109 I1.4999 J0.0174
G2 X11.66 Y3.81 I0.75 J-1.299
G2 X9.41 Y2.511 I-1.5 J0.0
G2 X8.6601 Y3.7926 I0.75 J1.299
G0 Z3.0
G0 X28.9591 Y3.8098
G0 Z1.0
G1 F50.0 Z0.0
G2 F200.0 X29.0845 Y4.0273 Z-0.2002 I0.2509 J0.0002
G2 X29.461 Y3.81 Z-0.6002 I0.1255 J-0.2173
G2 X29.0845 Y3.5927 Z-1.0002 I-0.251 J0.0
G2 X28.9591 Y3.8098 Z-1.2 I0.1255 J0.2173
G2 X29.0845 Y4.0273 Z-1.4002 I0.2509 J0.0002
G2 X29.461 Y3.81 Z-1.8002 I0.1255 J-0.2173
G2 X29.0845 Y3.5927 Z-2.2002 I-0.251 J0.0
G2 X28.9591 Y3.8098 Z-2.4 I0.1255 J0.2173
G2 X29.0845 Y4.0273 Z-2.6002 I0.2509 J0.0002
G2 X29.461 Y3.81 Z-3.0002 I0.1255 J-0.2173
G2 X29.0845 Y3.5927 Z-3.4002 I-0.251 J0.0
G2 X28.9591 Y3.8098 Z-3.6 I0.1255 J0.2173
G2 X29.0845 Y4.0273 I0.2509 J0.0002
G2 X29.461 Y3.81 I0.1255 J-0.2173
G2 X29.0845 Y3.5927 I-0.251 J0.0
G2 X28.9591 Y3.8098 I0.1255 J0.2173
G0 Z3.0
G0 X29.2081 Y36.5791
G0 Z1.0
G1 F50.0 Z0.0
G2 F200.0 X29.0845 Y36.6127 Z-0.0985 I0.0019 J0.2509
G2 Y37.0473 Z-0.4985 I0.1255 J0.2173
G2 X29.461 Y36.83 Z-0.8985 I0.1255 J-0.2173
G2 X29.2081 Y36.5791 Z-1.2 I-0.251 J0.0
G2 X29.0845 Y36.6127 Z-1.2985 I0.0019 J0.2509
G2 Y37.0473 Z-1.6985 I0.1255 J0.2173
G2 X29.461 Y36.83 Z-2.0985 I0.1255 J-0.2173
G2 X29.2081 Y36.5791 Z-2.4 I-0.251 J0.0
G2 X29.0845 Y36.6127 Z-2.4985 I0.0019 J0.2509
G2 Y37.0473 Z-2.8985 I0.1255 J0.2173
G2 X29.461 Y36.83 Z-3.2985 I0.1255 J-0.2173
G2 X29.2081 Y36.5791 Z-3.6 I-0.251 J0.0
G2 X29.0845 Y36.6127 I0.0019 J0.2509
G2 Y37.0473 I0.1255 J0.2173
G2 X29.461 Y36.83 I0.1255 J-0.2173
G2 X29.2081 Y36.5791 I-0.251 J0.0
G0 Z3.0
G0 X11.6599 Y36.8102
G0 Z1.0
G1 F50.0 Z0.0
G2 F200.0 X9.41 Y35.531 Z-0.3975 I-1.4999 J0.0198
G2 Y38.129 Z-0.7975 I0.75 J1.299
G2 X11.66 Y36.83 Z-1.1975 I0.75 J-1.299
G2 X11.6599 Y36.8102 Z-1.2 I-1.5 J0.0
G2 X9.41 Y35.531 Z-1.5975 I-1.4999 J0.0198
G2 Y38.129 Z-1.9975 I0.75 J1.299
G2 X11.66 Y36.83 Z-2.3975 I0.75 J-1.299
G2 X11.6599 Y36.8102 Z-2.4 I-1.5 J0.0
G2 X9.41 Y35.531 Z-2.7975 I-1.4999 J0.0198
G2 Y38.129 Z-3.1975 I0.75 J1.299
G2 X11.66 Y36.83 Z-3.5975 I0.75 J-1.299
G2 X11.6599 Y36.8102 Z-3.6 I-1.5 J0.0
G2 X9.41 Y35.531 I-1.4999 J0.0198
G2 Y38.129 I0.75 J1.299
G2 X11.66 Y36.83 I0.75 J-1.299
G2 X11.6599 Y36.8102 I-1.5 J0.0
G0 Z3.0
G0 X4.0609 Y36.8294
G0 Z1.0
G1 F50.0 Z0.0
G2 F200.0 X3.6845 Y36.6127 Z-0.3995 I-0.2509 J0.0006
G2 Y37.0473 Z-0.7995 I0.1255 J0.2173
G2 X4.061 Y36.83 Z-1.1995 I0.1255 J-0.2173
G2 X4.0609 Y36.8294 Z-1.2 I-0.251 J0.0
G2 X3.6845 Y36.6127 Z-1.5995 I-0.2509 J0.0006
G2 Y37.0473 Z-1.9995 I0.1255 J0.2173
G2 X4.061 Y36.83 Z-2.3995 I0.1255 J-0.2173
G2 X4.0609 Y36.8294 Z-2.4 I-0.251 J0.0
G2 X3.6845 Y36.6127 Z-2.7995 I-0.2509 J0.0006
G2 Y37.0473 Z-3.1995 I0.1255 J0.2173
G2 X4.061 Y36.83 Z-3.5995 I0.1255 J-0.2173
G2 X4.0609 Y36.8294 Z-3.6 I-0.251 J0.0
G2 X3.6845 Y36.6127 I-0.2509 J0.0006
G2 Y37.0473 I0.1255 J0.2173
G2 X4.061 Y36.83 I0.1255 J-0.2173
G2 X4.0609 Y36.8294 I-0.251 J0.0
G0 Z3.0
G0 X-1.0 Y32.655
G0 Z1.0
G1 F50.0 Z0.0
G1 F200.0 Y27.035 Z-0.1917
G1 X-12.97 Z-0.6
G1 Y32.655 Z-0.7917
G1 X-1.0 Z-1.2
G1 Y27.035 Z-1.3917
G1 X-12.97 Z-1.8
G1 Y32.655 Z-1.9917
G1 X-1.0 Z-2.4
G1 Y27.035 Z-2.5917
G1 X-12.97 Z-3.0
G1 Y32.655 Z-3.1917
G1 X-1.0 Z-3.6
G1 Y27.035
G1 X-12.97
G1 Y32.655
G1 X-1.0
G0 Z3.0
G0 X62.0031 Y36.7331
G0 Z1.0
G1 F50.0 Z0.0
G2 F200.0 X62.75 Y38.129 Z-0.2123 I1.4969 J0.0969
G2 X65.0 Y36.83 Z-0.6123 I0.75 J-1.299
G2 X62.75 Y35.531 Z-1.0123 I-1.5 J0.0
G2 X62.0031 Y36.7331 Z-1.2 I0.75 J1.299
G2 X62.75 Y38.129 Z-1.4123 I1.4969 J0.0969
G2 X65.0 Y36.83 Z-1.8123 I0.75 J-1.299
G2 X62.75 Y35.531 Z-2.2123 I-1.5 J0.0
G2 X62.0031 Y36.7331 Z-2.4 I0.75 J1.299
G2 X62.75 Y38.129 Z-2.6123 I1.4969 J0.0969
G2 X65.0 Y36.83 Z-3.0123 I0.75 J-1.299
G2 X62.75 Y35.531 Z-3.4123 I-1.5 J0.0
G2 X62.0031 Y36.7331 Z-3.6 I0.75 J1.299
G2 X62.75 Y38.129 I1.4969 J0.0969
G2 X65.0 Y36.83 I0.75 J-1.299
G2 X62.75 Y35.531 I-1.5 J0.0
G2 X62.0031 Y36.7331 I0.75 J1.299
G0 Z3.0
G0 X69.5991 Y36.8269
G0 Z1.0
G1 F50.0 Z0.0
G2 F200.0 X69.7245 Y37.0473 Z-0.2024 I0.2509 J0.0031
G2 X70.101 Y36.83 Z-0.6024 I0.1255 J-0.2173
G2 X69.7245 Y36.6127 Z-1.0024 I-0.251 J0.0
G2 X69.5991 Y36.8269 Z-1.2 I0.1255 J0.2173
G2 X69.7245 Y37.0473 Z-1.4024 I0.2509 J0.0031
G2 X70.101 Y36.83 Z-1.8024 I0.1255 J-0.2173
G2 X69.7245 Y36.6127 Z-2.2024 I-0.251 J0.0
G2 X69.5991 Y36.8269 Z-2.4 I0.1255 J0.2173
G2 X69.7245 Y37.0473 Z-2.6024 I0.2509 J0.0031
G2 X70.101 Y36.83 Z-3.0024 I0.1255 J-0.2173
G2 X69.7245 Y36.6127 Z-3.4024 I-0.251 J0.0
G2 X69.5991 Y36.8269 Z-3.6 I0.1255 J0.2173
G2 X69.7245 Y37.0473 I0.2509 J0.0031
G2 X70.101 Y36.83 I0.1255 J-0.2173
G2 X69.7245 Y36.6127 I-0.251 J0.0
G2 X69.5991 Y36.8269 I0.1255 J0.2173
G0 Z3.0
G0 X63.7725 Y5.285
G0 Z1.0
G1 F50.0 Z0.0
G2 F200.0 X65.0 Y3.81 Z-0.2651 I-0.2725 J-1.475
G2 X62.75 Y2.511 Z-0.6651 I-1.5 J0.0
G2 Y5.109 Z-1.0651 I0.75 J1.299
G2 X63.7725 Y5.285 Z-1.2 I0.75 J-1.299
G2 X65.0 Y3.81 Z-1.4651 I-0.2725 J-1.475
G2 X62.75 Y2.511 Z-1.8651 I-1.5 J0.0
G2 Y5.109 Z-2.2651 I0.75 J1.299
G2 X63.7725 Y5.285 Z-2.4 I0.75 J-1.299
G2 X65.0 Y3.81 Z-2.6651 I-0.2725 J-1.475
G2 X62.75 Y2.511 Z-3.0651 I-1.5 J0.0
G2 Y5.109 Z-3.4651 I0.75 J1.299
G2 X63.7725 Y5.285 Z-3.6 I0.75 J-1.299
G2 X65.0 Y3.81 I-0.2725 J-1.475
G2 X62.75 Y2.511 I-1.5 J0.0
G2 Y5.109 I0.75 J1.299
G2 X63.7725 Y5.285 I0.75 J-1.299
G0 Z3.0
G0 X69.6061 Y3.8692
G0 Z1.0
G1 F50.0 Z0.0
G2 F200.0 X69.7245 Y4.0273 Z-0.1545 I0.2439 J-0.0592
G2 X70.101 Y3.81 Z-0.5545 I0.1255 J-0.2173
G2 X69.7245 Y3.5927 Z-0.9545 I-0.251 J0.0
G2 X69.6061 Y3.8692 Z-1.2 I0.1255 J0.2173
G2 X69.7245 Y4.0273 Z-1.3545 I0.2439 J-0.0592
G2 X70.101 Y3.81 Z-1.7545 I0.1255 J-0.2173
G2 X69.7245 Y3.5927 Z-2.1545 I-0.251 J0.0
G2 X69.6061 Y3.8692 Z-2.4 I0.1255 J0.2173
G2 X69.7245 Y4.0273 Z-2.5545 I0.2439 J-0.0592
G2 X70.101 Y3.81 Z-2.9545 I0.1255 J-0.2173
G2 X69.7245 Y3.5927 Z-3.3545 I-0.251 J0.0
G2 X69.6061 Y3.8692 Z-3.6 I0.1255 J0.2173
G2 X69.7245 Y4.0273 I0.2439 J-0.0592
G2 X70.101 Y3.81 I0.1255 J-0.2173
G2 X69.7245 Y3.5927 I-0.251 J0.0
G2 X69.6061 Y3.8692 I0.1255 J0.2173
G0 Z3.0
G0 Y-2.27
G0 Z1.0
G1 F50.0 Z0.0
G1 F200.0 X74.88 Z-0.0232
G3 X75.93 Y-1.22 Z-0.0304 I0.0 J1.05
G1 Y41.86 Z-0.2199
G3 X74.88 Y42.91 Z-0.2271 I-1.05 J0.0
G1 X-15.19 Z-0.6232
G3 X-16.24 Y41.86 Z-0.6304 I0.0 J-1.05
G1 Y-1.22 Z-0.8199
G3 X-15.19 Y-2.27 Z-0.8271 I1.05 J0.0
G1 X69.6061 Z-1.2
G1 X74.88 Z-1.2232
G3 X75.93 Y-1.22 Z-1.2304 I0.0 J1.05
G1 Y41.86 Z-1.4199
G3 X74.88 Y42.91 Z-1.4271 I-1.05 J0.0
G1 X-15.19 Z-1.8232
G3 X-16.24 Y41.86 Z-1.8304 I0.0 J-1.05
G1 Y-1.22 Z-2.0199
G3 X-15.19 Y-2.27 Z-2.0271 I1.05 J0.0
G1 X69.6061 Z-2.4
G1 X74.88 Z-2.4232
G3 X75.93 Y-1.22 Z-2.4304 I0.0 J1.05
G1 Y41.86 Z-2.6199
G3 X74.88 Y42.91 Z-2.6271 I-1.05 J0.0
G1 X-15.19 Z-3.0232
G3 X-16.24 Y41.86 Z-3.0304 I0.0 J-1.05
G1 Y-1.22 Z-3.2199
G3 X-15.19 Y-2.27 Z-3.2271 I1.05 J0.0
G1 X69.6061 Z-3.6
G1 X74.88
G3 X75.93 Y-1.22 I0.0 J1.05
G1 Y41.86
G3 X74.88 Y42.91 I-1.05 J0.0
G1 X-15.19
G3 X-16.24 Y41.86 I0.0 J-1.05
G1 Y-1.22
G3 X-15.19 Y-2.27 I1.05 J0.0
G1 X69.6061
G0 Z3.0
M5
M30
