( Made using CamBam - http://www.cambam.co.uk )
( LoginNFC case mm 3/15/2016 9:54:26 PM )
( T2 : 2.0 )
G21 G90 G91.1 G64 G40
G0 Z3.0
( T2 : 2.0 )
T2 M6
( Drill )
G17
M3 S1000
G0 X3.81 Y3.81
G0 Z3.0
G0 X4.061 Y3.81
G0 Z1.0
G1 F50.0 Z0.0
G2 F150.0 X3.6845 Y3.5927 Z-0.2 I-0.251 J0.0
G2 Y4.0273 Z-0.4 I0.1255 J0.2173
G2 X4.061 Y3.81 Z-0.6 I0.1255 J-0.2173
G2 X3.6845 Y3.5927 Z-0.8 I-0.251 J0.0
G2 Y4.0273 Z-1.0 I0.1255 J0.2173
G2 X4.061 Y3.81 Z-1.2 I0.1255 J-0.2173
G2 X3.6845 Y3.5927 Z-1.4 I-0.251 J0.0
G2 Y4.0273 Z-1.6 I0.1255 J0.2173
G2 X4.061 Y3.81 Z-1.8 I0.1255 J-0.2173
G2 X3.6845 Y3.5927 Z-2.0 I-0.251 J0.0
G2 Y4.0273 Z-2.2 I0.1255 J0.2173
G2 X4.061 Y3.81 Z-2.4 I0.1255 J-0.2173
G2 X3.6845 Y3.5927 Z-2.6 I-0.251 J0.0
G2 Y4.0273 Z-2.8 I0.1255 J0.2173
G2 X4.061 Y3.81 Z-3.0 I0.1255 J-0.2173
G2 X3.6845 Y3.5927 Z-3.2 I-0.251 J0.0
G2 Y4.0273 Z-3.4 I0.1255 J0.2173
G2 X4.061 Y3.81 Z-3.6 I0.1255 J-0.2173
G2 X3.6845 Y3.5927 I-0.251 J0.0
G2 Y4.0273 I0.1255 J0.2173
G2 X4.061 Y3.81 I0.1255 J-0.2173
G0 Z3.0
G0 X11.66
G0 Z1.0
G1 F50.0 Z0.0
G2 F150.0 X9.41 Y2.511 Z-0.2 I-1.5 J0.0
G2 Y5.109 Z-0.4 I0.75 J1.299
G2 X11.66 Y3.81 Z-0.6 I0.75 J-1.299
G2 X9.41 Y2.511 Z-0.8 I-1.5 J0.0
G2 Y5.109 Z-1.0 I0.75 J1.299
G2 X11.66 Y3.81 Z-1.2 I0.75 J-1.299
G2 X9.41 Y2.511 Z-1.4 I-1.5 J0.0
G2 Y5.109 Z-1.6 I0.75 J1.299
G2 X11.66 Y3.81 Z-1.8 I0.75 J-1.299
G2 X9.41 Y2.511 Z-2.0 I-1.5 J0.0
G2 Y5.109 Z-2.2 I0.75 J1.299
G2 X11.66 Y3.81 Z-2.4 I0.75 J-1.299
G2 X9.41 Y2.511 Z-2.6 I-1.5 J0.0
G2 Y5.109 Z-2.8 I0.75 J1.299
G2 X11.66 Y3.81 Z-3.0 I0.75 J-1.299
G2 X9.41 Y2.511 Z-3.2 I-1.5 J0.0
G2 Y5.109 Z-3.4 I0.75 J1.299
G2 X11.66 Y3.81 Z-3.6 I0.75 J-1.299
G2 X9.41 Y2.511 I-1.5 J0.0
G2 Y5.109 I0.75 J1.299
G2 X11.66 Y3.81 I0.75 J-1.299
G0 Z3.0
G0 X29.461
G0 Z1.0
G1 F50.0 Z0.0
G2 F150.0 X29.0845 Y3.5927 Z-0.2 I-0.251 J0.0
G2 Y4.0273 Z-0.4 I0.1255 J0.2173
G2 X29.461 Y3.81 Z-0.6 I0.1255 J-0.2173
G2 X29.0845 Y3.5927 Z-0.8 I-0.251 J0.0
G2 Y4.0273 Z-1.0 I0.1255 J0.2173
G2 X29.461 Y3.81 Z-1.2 I0.1255 J-0.2173
G2 X29.0845 Y3.5927 Z-1.4 I-0.251 J0.0
G2 Y4.0273 Z-1.6 I0.1255 J0.2173
G2 X29.461 Y3.81 Z-1.8 I0.1255 J-0.2173
G2 X29.0845 Y3.5927 Z-2.0 I-0.251 J0.0
G2 Y4.0273 Z-2.2 I0.1255 J0.2173
G2 X29.461 Y3.81 Z-2.4 I0.1255 J-0.2173
G2 X29.0845 Y3.5927 Z-2.6 I-0.251 J0.0
G2 Y4.0273 Z-2.8 I0.1255 J0.2173
G2 X29.461 Y3.81 Z-3.0 I0.1255 J-0.2173
G2 X29.0845 Y3.5927 Z-3.2 I-0.251 J0.0
G2 Y4.0273 Z-3.4 I0.1255 J0.2173
G2 X29.461 Y3.81 Z-3.6 I0.1255 J-0.2173
G2 X29.0845 Y3.5927 I-0.251 J0.0
G2 Y4.0273 I0.1255 J0.2173
G2 X29.461 Y3.81 I0.1255 J-0.2173
G0 Z3.0
G0 Y36.83
G0 Z1.0
G1 F50.0 Z0.0
G2 F150.0 X29.0845 Y36.6127 Z-0.2 I-0.251 J0.0
G2 Y37.0473 Z-0.4 I0.1255 J0.2173
G2 X29.461 Y36.83 Z-0.6 I0.1255 J-0.2173
G2 X29.0845 Y36.6127 Z-0.8 I-0.251 J0.0
G2 Y37.0473 Z-1.0 I0.1255 J0.2173
G2 X29.461 Y36.83 Z-1.2 I0.1255 J-0.2173
G2 X29.0845 Y36.6127 Z-1.4 I-0.251 J0.0
G2 Y37.0473 Z-1.6 I0.1255 J0.2173
G2 X29.461 Y36.83 Z-1.8 I0.1255 J-0.2173
G2 X29.0845 Y36.6127 Z-2.0 I-0.251 J0.0
G2 Y37.0473 Z-2.2 I0.1255 J0.2173
G2 X29.461 Y36.83 Z-2.4 I0.1255 J-0.2173
G2 X29.0845 Y36.6127 Z-2.6 I-0.251 J0.0
G2 Y37.0473 Z-2.8 I0.1255 J0.2173
G2 X29.461 Y36.83 Z-3.0 I0.1255 J-0.2173
G2 X29.0845 Y36.6127 Z-3.2 I-0.251 J0.0
G2 Y37.0473 Z-3.4 I0.1255 J0.2173
G2 X29.461 Y36.83 Z-3.6 I0.1255 J-0.2173
G2 X29.0845 Y36.6127 I-0.251 J0.0
G2 Y37.0473 I0.1255 J0.2173
G2 X29.461 Y36.83 I0.1255 J-0.2173
G0 Z3.0
G0 X11.66
G0 Z1.0
G1 F50.0 Z0.0
G2 F150.0 X9.41 Y35.531 Z-0.2 I-1.5 J0.0
G2 Y38.129 Z-0.4 I0.75 J1.299
G2 X11.66 Y36.83 Z-0.6 I0.75 J-1.299
G2 X9.41 Y35.531 Z-0.8 I-1.5 J0.0
G2 Y38.129 Z-1.0 I0.75 J1.299
G2 X11.66 Y36.83 Z-1.2 I0.75 J-1.299
G2 X9.41 Y35.531 Z-1.4 I-1.5 J0.0
G2 Y38.129 Z-1.6 I0.75 J1.299
G2 X11.66 Y36.83 Z-1.8 I0.75 J-1.299
G2 X9.41 Y35.531 Z-2.0 I-1.5 J0.0
G2 Y38.129 Z-2.2 I0.75 J1.299
G2 X11.66 Y36.83 Z-2.4 I0.75 J-1.299
G2 X9.41 Y35.531 Z-2.6 I-1.5 J0.0
G2 Y38.129 Z-2.8 I0.75 J1.299
G2 X11.66 Y36.83 Z-3.0 I0.75 J-1.299
G2 X9.41 Y35.531 Z-3.2 I-1.5 J0.0
G2 Y38.129 Z-3.4 I0.75 J1.299
G2 X11.66 Y36.83 Z-3.6 I0.75 J-1.299
G2 X9.41 Y35.531 I-1.5 J0.0
G2 Y38.129 I0.75 J1.299
G2 X11.66 Y36.83 I0.75 J-1.299
G0 Z3.0
G0 X4.061
G0 Z1.0
G1 F50.0 Z0.0
G2 F150.0 X3.6845 Y36.6127 Z-0.2 I-0.251 J0.0
G2 Y37.0473 Z-0.4 I0.1255 J0.2173
G2 X4.061 Y36.83 Z-0.6 I0.1255 J-0.2173
G2 X3.6845 Y36.6127 Z-0.8 I-0.251 J0.0
G2 Y37.0473 Z-1.0 I0.1255 J0.2173
G2 X4.061 Y36.83 Z-1.2 I0.1255 J-0.2173
G2 X3.6845 Y36.6127 Z-1.4 I-0.251 J0.0
G2 Y37.0473 Z-1.6 I0.1255 J0.2173
G2 X4.061 Y36.83 Z-1.8 I0.1255 J-0.2173
G2 X3.6845 Y36.6127 Z-2.0 I-0.251 J0.0
G2 Y37.0473 Z-2.2 I0.1255 J0.2173
G2 X4.061 Y36.83 Z-2.4 I0.1255 J-0.2173
G2 X3.6845 Y36.6127 Z-2.6 I-0.251 J0.0
G2 Y37.0473 Z-2.8 I0.1255 J0.2173
G2 X4.061 Y36.83 Z-3.0 I0.1255 J-0.2173
G2 X3.6845 Y36.6127 Z-3.2 I-0.251 J0.0
G2 Y37.0473 Z-3.4 I0.1255 J0.2173
G2 X4.061 Y36.83 Z-3.6 I0.1255 J-0.2173
G2 X3.6845 Y36.6127 I-0.2509 J0.0
G2 Y37.0473 I0.1255 J0.2173
G2 X4.061 Y36.83 I0.1255 J-0.2173
G0 Z3.0
G0 X65.0
G0 Z1.0
G1 F50.0 Z0.0
G2 F150.0 X62.75 Y35.531 Z-0.2 I-1.5 J0.0
G2 Y38.129 Z-0.4 I0.75 J1.299
G2 X65.0 Y36.83 Z-0.6 I0.75 J-1.299
G2 X62.75 Y35.531 Z-0.8 I-1.5 J0.0
G2 Y38.129 Z-1.0 I0.75 J1.299
G2 X65.0 Y36.83 Z-1.2 I0.75 J-1.299
G2 X62.75 Y35.531 Z-1.4 I-1.5 J0.0
G2 Y38.129 Z-1.6 I0.75 J1.299
G2 X65.0 Y36.83 Z-1.8 I0.75 J-1.299
G2 X62.75 Y35.531 Z-2.0 I-1.5 J0.0
G2 Y38.129 Z-2.2 I0.75 J1.299
G2 X65.0 Y36.83 Z-2.4 I0.75 J-1.299
G2 X62.75 Y35.531 Z-2.6 I-1.5 J0.0
G2 Y38.129 Z-2.8 I0.75 J1.299
G2 X65.0 Y36.83 Z-3.0 I0.75 J-1.299
G2 X62.75 Y35.531 Z-3.2 I-1.5 J0.0
G2 Y38.129 Z-3.4 I0.75 J1.299
G2 X65.0 Y36.83 Z-3.6 I0.75 J-1.299
G2 X62.75 Y35.531 I-1.5 J0.0
G2 Y38.129 I0.75 J1.299
G2 X65.0 Y36.83 I0.75 J-1.299
G0 Z3.0
G0 X70.101
G0 Z1.0
G1 F50.0 Z0.0
G2 F150.0 X69.7245 Y36.6127 Z-0.2 I-0.251 J0.0
G2 Y37.0473 Z-0.4 I0.1255 J0.2173
G2 X70.101 Y36.83 Z-0.6 I0.1255 J-0.2173
G2 X69.7245 Y36.6127 Z-0.8 I-0.251 J0.0
G2 Y37.0473 Z-1.0 I0.1255 J0.2173
G2 X70.101 Y36.83 Z-1.2 I0.1255 J-0.2173
G2 X69.7245 Y36.6127 Z-1.4 I-0.251 J0.0
G2 Y37.0473 Z-1.6 I0.1255 J0.2173
G2 X70.101 Y36.83 Z-1.8 I0.1255 J-0.2173
G2 X69.7245 Y36.6127 Z-2.0 I-0.251 J0.0
G2 Y37.0473 Z-2.2 I0.1255 J0.2173
G2 X70.101 Y36.83 Z-2.4 I0.1255 J-0.2173
G2 X69.7245 Y36.6127 Z-2.6 I-0.251 J0.0
G2 Y37.0473 Z-2.8 I0.1255 J0.2173
G2 X70.101 Y36.83 Z-3.0 I0.1255 J-0.2173
G2 X69.7245 Y36.6127 Z-3.2 I-0.251 J0.0
G2 Y37.0473 Z-3.4 I0.1255 J0.2173
G2 X70.101 Y36.83 Z-3.6 I0.1255 J-0.2173
G2 X69.7245 Y36.6127 I-0.251 J0.0
G2 Y37.0473 I0.1255 J0.2173
G2 X70.101 Y36.83 I0.1255 J-0.2173
G0 Z3.0
G0 Y3.81
G0 Z1.0
G1 F50.0 Z0.0
G2 F150.0 X69.7245 Y3.5927 Z-0.2 I-0.251 J0.0
G2 Y4.0273 Z-0.4 I0.1255 J0.2173
G2 X70.101 Y3.81 Z-0.6 I0.1255 J-0.2173
G2 X69.7245 Y3.5927 Z-0.8 I-0.251 J0.0
G2 Y4.0273 Z-1.0 I0.1255 J0.2173
G2 X70.101 Y3.81 Z-1.2 I0.1255 J-0.2173
G2 X69.7245 Y3.5927 Z-1.4 I-0.251 J0.0
G2 Y4.0273 Z-1.6 I0.1255 J0.2173
G2 X70.101 Y3.81 Z-1.8 I0.1255 J-0.2173
G2 X69.7245 Y3.5927 Z-2.0 I-0.251 J0.0
G2 Y4.0273 Z-2.2 I0.1255 J0.2173
G2 X70.101 Y3.81 Z-2.4 I0.1255 J-0.2173
G2 X69.7245 Y3.5927 Z-2.6 I-0.251 J0.0
G2 Y4.0273 Z-2.8 I0.1255 J0.2173
G2 X70.101 Y3.81 Z-3.0 I0.1255 J-0.2173
G2 X69.7245 Y3.5927 Z-3.2 I-0.251 J0.0
G2 Y4.0273 Z-3.4 I0.1255 J0.2173
G2 X70.101 Y3.81 Z-3.6 I0.1255 J-0.2173
G2 X69.7245 Y3.5927 I-0.251 J0.0
G2 Y4.0273 I0.1255 J0.2173
G2 X70.101 Y3.81 I0.1255 J-0.2173
G0 Z3.0
G0 X65.0
G0 Z1.0
G1 F50.0 Z0.0
G2 F150.0 X62.75 Y2.511 Z-0.2 I-1.5 J0.0
G2 Y5.109 Z-0.4 I0.75 J1.299
G2 X65.0 Y3.81 Z-0.6 I0.75 J-1.299
G2 X62.75 Y2.511 Z-0.8 I-1.5 J0.0
G2 Y5.109 Z-1.0 I0.75 J1.299
G2 X65.0 Y3.81 Z-1.2 I0.75 J-1.299
G2 X62.75 Y2.511 Z-1.4 I-1.5 J0.0
G2 Y5.109 Z-1.6 I0.75 J1.299
G2 X65.0 Y3.81 Z-1.8 I0.75 J-1.299
G2 X62.75 Y2.511 Z-2.0 I-1.5 J0.0
G2 Y5.109 Z-2.2 I0.75 J1.299
G2 X65.0 Y3.81 Z-2.4 I0.75 J-1.299
G2 X62.75 Y2.511 Z-2.6 I-1.5 J0.0
G2 Y5.109 Z-2.8 I0.75 J1.299
G2 X65.0 Y3.81 Z-3.0 I0.75 J-1.299
G2 X62.75 Y2.511 Z-3.2 I-1.5 J0.0
G2 Y5.109 Z-3.4 I0.75 J1.299
G2 X65.0 Y3.81 Z-3.6 I0.75 J-1.299
G2 X62.75 Y2.511 I-1.5 J0.0
G2 Y5.109 I0.75 J1.299
G2 X65.0 Y3.81 I0.75 J-1.299
( Antenna )
S1000
G0 Z3.0
G0 X-3.1645 Y26.535
G0 Z1.0
G1 F50.0 Z0.0
G1 F150.0 X-9.97 Z-1.2
G1 Y33.155
G1 X-1.0
G1 Y26.535
G1 X-9.97
G0 Z3.0
G0 X-3.1645
G0 Z-0.2
G1 F50.0 Z-1.2
G1 F150.0 X-9.97 Z-2.4
G1 Y33.155
G1 X-1.0
G1 Y26.535
G1 X-9.97
G0 Z3.0
G0 X-3.1645
G0 Z-1.4
G1 F50.0 Z-2.4
G1 F150.0 X-9.97 Z-3.6
G1 Y33.155
G1 X-1.0
G1 Y26.535
G1 X-9.97
( Cutout )
S1000
G0 Z3.0
G0 X-14.24 Y16.8055
G0 Z1.0
G1 F50.0 Z0.0
G1 F150.0 Y10.0 Z-1.2
G1 Y0.0
G3 X-11.97 Y-2.27 I2.27 J0.0
G1 X73.66
G3 X75.93 Y0.0 I0.0 J2.27
G1 Y40.64
G3 X73.66 Y42.91 I-2.27 J0.0
G1 X-11.97
G3 X-14.24 Y40.64 I0.0 J-2.27
G1 Y10.0
G0 Z3.0
G0 Y16.8055
G0 Z-0.2
G1 F50.0 Z-1.2
G1 F150.0 Y10.0 Z-2.4
G1 Y0.0
G3 X-11.97 Y-2.27 I2.27 J0.0
G1 X73.66
G3 X75.93 Y0.0 I0.0 J2.27
G1 Y40.64
G3 X73.66 Y42.91 I-2.27 J0.0
G1 X-11.97
G3 X-14.24 Y40.64 I0.0 J-2.27
G1 Y10.0
G0 Z3.0
G0 Y16.8055
G0 Z-0.2
G1 F50.0 Z-2.4
G1 F150.0 Y10.0 Z-3.6
G1 Y0.0
G3 X-11.97 Y-2.27 I2.27 J0.0
G1 X37.5
G1 X39.0 Z-2.4
G1 X41.0
G1 X42.5 Z-3.6
G1 X73.66
G3 X75.93 Y0.0 I0.0 J2.27
G1 Y19.5
G1 Y21.0 Z-2.4
G1 Y23.0
G1 Y24.5 Z-3.6
G1 Y40.64
G3 X73.66 Y42.91 I-2.27 J0.0
G1 X42.5
G1 X41.0 Z-2.4
G1 X39.0
G1 X37.5 Z-3.6
G1 X-11.97
G3 X-14.24 Y40.64 I0.0 J-2.27
G1 Y24.5
G1 Y23.0 Z-2.4
G1 Y21.0
G1 Y19.5 Z-3.6
G1 Y10.0
G0 Z3.0
M5
M30
