( Made using CamBam - http://www.cambam.co.uk )
( LoginNFC case mm 2/25/2016 9:31:07 PM )
( T2 : 2.0 )
( T99 : 0.2 )
G21 G90 G91.1 G64 G40
G0 Z3.0
( T2 : 2.0 )
T2 M6
( Pocket1 )
G17
M3 S1000
G0 X16.2 Y16.2
G0 Z1.0
G1 F50.0 Z0.0
G1 F150.0 Y24.44 Z-0.465
G1 X16.82 Z-0.5
G1 Y16.2 Z-0.965
G1 X16.2 Z-1.0
G1 Y24.44
G1 X16.82
G1 Y16.2
G1 X16.2
G1 F50.0 Y15.4
G1 F150.0 X15.4
G1 Y25.24
G1 X17.62
G1 Y15.4
G1 X16.2
G1 F50.0 Y14.6
G1 F150.0 X14.6
G1 Y26.04
G1 X18.42
G1 Y14.6
G1 X16.2
G1 F50.0 Y13.8
G1 F150.0 X13.8
G1 Y26.84
G1 X19.22
G1 Y13.8
G1 X16.2
G1 F50.0 Y13.0
G1 F150.0 X13.0
G1 Y27.64
G1 X20.02
G1 Y13.0
G1 X16.2
G1 F50.0 Y12.2
G1 F150.0 X12.2
G1 Y28.44
G1 X20.82
G1 Y12.2
G1 X16.2
G1 F50.0 Y11.4
G1 F150.0 X11.4
G1 Y29.24
G1 X21.62
G1 Y11.4
G1 X16.2
G1 F50.0 Y10.6
G1 F150.0 X10.6
G1 Y30.04
G1 X22.42
G1 Y10.6
G1 X16.2
G1 F50.0 Y9.8
G1 F150.0 X9.8
G1 Y30.84
G1 X23.22
G1 Y9.8
G1 X16.2
G1 F50.0 Y9.0
G1 F150.0 X9.0
G1 Y31.64
G1 X24.02
G1 Y9.0
G1 X16.2
G1 F50.0 Y8.2
G1 F150.0 X8.2
G1 Y32.44
G1 X24.82
G1 Y8.2
G1 X16.2
G1 F50.0 Y7.4
G1 F150.0 X7.4
G1 Y33.24
G1 X25.62
G1 Y7.4
G1 X16.2
G1 F50.0 Y6.6
G1 F150.0 X6.6
G1 Y34.04
G1 X26.42
G1 Y6.6
G1 X16.2
G1 F50.0 Y5.8
G1 F150.0 X5.8
G1 Y34.84
G1 X27.22
G1 Y5.8
G1 X16.2
G1 F50.0 Y5.0
G1 F150.0 X5.0
G1 Y35.64
G1 X28.02
G1 Y5.0
G1 X16.2
G1 F50.0 Y4.2
G1 F150.0 X4.2
G1 Y36.44
G1 X28.82
G1 Y4.2
G1 X16.2
G1 F50.0 Y3.4
G1 F150.0 X3.4
G1 Y37.24
G1 X29.62
G1 Y3.4
G1 X16.2
G1 F50.0 Y2.6
G1 F150.0 X2.6
G1 Y38.04
G1 X30.42
G1 Y2.6
G1 X16.2
G1 F50.0 Y1.8
G1 F150.0 X1.8
G1 Y38.84
G1 X31.22
G1 Y1.8
G1 X16.2
G1 F50.0 Y1.0
G1 F150.0 X1.0
G1 Y39.64
G1 X32.02
G1 Y1.0
G1 X16.2
( Cutout )
G0 Z3.0
( T99 : 0.2 )
T99 M6
M3 S1000
G0 X70.2373 Y5.1554
G0 Z1.0
G1 F50.0 Z0.0
G2 F150.0 X71.25 Y3.81 Z-0.2465 I-0.3873 J-1.3454
G2 X69.15 Y2.5976 Z-0.6465 I-1.4 J0.0
G2 Y5.0224 Z-1.0465 I0.7 J1.2124
G2 X70.2373 Y5.1554 Z-1.2 I0.7 J-1.2124
G2 X71.25 Y3.81 Z-1.4465 I-0.3873 J-1.3454
G2 X69.15 Y2.5976 Z-1.8465 I-1.4 J0.0
G2 Y5.0224 Z-2.2465 I0.7 J1.2124
G2 X70.2373 Y5.1554 Z-2.4 I0.7 J-1.2124
G2 X71.25 Y3.81 Z-2.6465 I-0.3873 J-1.3454
G2 X69.15 Y2.5976 Z-3.0465 I-1.4 J0.0
G2 Y5.0224 Z-3.4465 I0.7 J1.2124
G2 X70.2373 Y5.1554 Z-3.6 I0.7 J-1.2124
G2 X71.25 Y3.81 I-0.3873 J-1.3454
G2 X69.15 Y2.5976 I-1.4 J0.0
G2 Y5.0224 I0.7 J1.2124
G2 X70.2373 Y5.1554 I0.7 J-1.2124
G0 Z3.0
G0 X69.8671 Y35.4301
G0 Z1.0
G1 F50.0 Z0.0
G2 F150.0 X69.15 Y35.6176 Z-0.1023 I-0.0171 J1.3999
G2 Y38.0424 Z-0.5023 I0.7 J1.2124
G2 X71.25 Y36.83 Z-0.9023 I0.7 J-1.2124
G2 X69.8671 Y35.4301 Z-1.2 I-1.4 J0.0
G2 X69.15 Y35.6176 Z-1.3023 I-0.0171 J1.3999
G2 Y38.0424 Z-1.7023 I0.7 J1.2124
G2 X71.25 Y36.83 Z-2.1023 I0.7 J-1.2124
G2 X69.8671 Y35.4301 Z-2.4 I-1.4 J0.0
G2 X69.15 Y35.6176 Z-2.5023 I-0.0171 J1.3999
G2 Y38.0424 Z-2.9023 I0.7 J1.2124
G2 X71.25 Y36.83 Z-3.3023 I0.7 J-1.2124
G2 X69.8671 Y35.4301 Z-3.6 I-1.4 J0.0
G2 X69.15 Y35.6176 I-0.0171 J1.3999
G2 Y38.0424 I0.7 J1.2124
G2 X71.25 Y36.83 I0.7 J-1.2124
G2 X69.8671 Y35.4301 I-1.4 J0.0
G0 Z3.0
G0 X30.6092 Y36.7818
G0 Z1.0
G1 F50.0 Z0.0
G2 F150.0 X28.51 Y35.6176 Z-0.3934 I-1.3992 J0.0482
G2 Y38.0424 Z-0.7934 I0.7 J1.2124
G2 X30.61 Y36.83 Z-1.1934 I0.7 J-1.2124
G2 X30.6092 Y36.7818 Z-1.2 I-1.4 J0.0
G2 X28.51 Y35.6176 Z-1.5934 I-1.3992 J0.0482
G2 Y38.0424 Z-1.9934 I0.7 J1.2124
G2 X30.61 Y36.83 Z-2.3934 I0.7 J-1.2124
G2 X30.6092 Y36.7818 Z-2.4 I-1.4 J0.0
G2 X28.51 Y35.6176 Z-2.7934 I-1.3992 J0.0482
G2 Y38.0424 Z-3.1934 I0.7 J1.2124
G2 X30.61 Y36.83 Z-3.5934 I0.7 J-1.2124
G2 X30.6092 Y36.7818 Z-3.6 I-1.4 J0.0
G2 X28.51 Y35.6176 I-1.3992 J0.0482
G2 Y38.0424 I0.7 J1.2124
G2 X30.61 Y36.83 I0.7 J-1.2124
G2 X30.6092 Y36.7818 I-1.4 J0.0
G0 Z3.0
G0 X5.21 Y36.8275
G0 Z1.0
G1 F50.0 Z0.0
G2 F150.0 X3.11 Y35.6176 Z-0.3997 I-1.4 J0.0025
G2 Y38.0424 Z-0.7997 I0.7 J1.2124
G2 X5.21 Y36.83 Z-1.1997 I0.7 J-1.2124
G2 Y36.8275 Z-1.2 I-1.4 J0.0
G2 X3.11 Y35.6176 Z-1.5997 I-1.4 J0.0025
G2 Y38.0424 Z-1.9997 I0.7 J1.2124
G2 X5.21 Y36.83 Z-2.3997 I0.7 J-1.2124
G2 Y36.8275 Z-2.4 I-1.4 J0.0
G2 X3.11 Y35.6176 Z-2.7997 I-1.4 J0.0025
G2 Y38.0424 Z-3.1997 I0.7 J1.2124
G2 X5.21 Y36.83 Z-3.5997 I0.7 J-1.2124
G2 Y36.8275 Z-3.6 I-1.4 J0.0
G2 X3.11 Y35.6176 I-1.4 J0.0025
G2 Y38.0424 I0.7 J1.2124
G2 X5.21 Y36.83 I0.7 J-1.2124
G2 Y36.8275 I-1.4 J0.0
G0 Z3.0
G0 X-0.1 Y33.555
G0 Z1.0
G1 F50.0 Z0.0
G1 F150.0 Y26.135 Z-0.232
G1 X-11.87 Z-0.6
G1 Y33.555 Z-0.832
G1 X-0.1 Z-1.2
G1 Y26.135 Z-1.432
G1 X-11.87 Z-1.8
G1 Y33.555 Z-2.032
G1 X-0.1 Z-2.4
G1 Y26.135 Z-2.632
G1 X-11.87 Z-3.0
G1 Y33.555 Z-3.232
G1 X-0.1 Z-3.6
G1 Y26.135
G1 X-11.87
G1 Y33.555
G1 X-0.1
G0 Z3.0
G0 X3.6275 Y5.1981
G0 Z1.0
G1 F50.0 Z0.0
G2 F150.0 X5.21 Y3.81 Z-0.325 I0.1825 J-1.3881
G2 X3.11 Y2.5976 Z-0.725 I-1.4 J0.0
G2 Y5.0224 Z-1.125 I0.7 J1.2124
G2 X3.6275 Y5.1981 Z-1.2 I0.7 J-1.2124
G2 X5.21 Y3.81 Z-1.525 I0.1825 J-1.3881
G2 X3.11 Y2.5976 Z-1.925 I-1.4 J0.0
G2 Y5.0224 Z-2.325 I0.7 J1.2124
G2 X3.6275 Y5.1981 Z-2.4 I0.7 J-1.2124
G2 X5.21 Y3.81 Z-2.725 I0.1825 J-1.3881
G2 X3.11 Y2.5976 Z-3.125 I-1.4 J0.0
G2 Y5.0224 Z-3.525 I0.7 J1.2124
G2 X3.6275 Y5.1981 Z-3.6 I0.7 J-1.2124
G2 X5.21 Y3.81 I0.1825 J-1.3881
G2 X3.11 Y2.5976 I-1.4 J0.0
G2 Y5.0224 I0.7 J1.2124
G2 X3.6275 Y5.1981 I0.7 J-1.2124
G0 Z3.0
G0 X27.8121 Y3.8858
G0 Z1.0
G1 F50.0 Z0.0
G2 F150.0 X28.51 Y5.0224 Z-0.1896 I1.3979 J-0.0758
G2 X30.61 Y3.81 Z-0.5896 I0.7 J-1.2124
G2 X28.51 Y2.5976 Z-0.9896 I-1.4 J0.0
G2 X27.8121 Y3.8858 Z-1.2 I0.7 J1.2124
G2 X28.51 Y5.0224 Z-1.3896 I1.3979 J-0.0758
G2 X30.61 Y3.81 Z-1.7896 I0.7 J-1.2124
G2 X28.51 Y2.5976 Z-2.1896 I-1.4 J0.0
G2 X27.8121 Y3.8858 Z-2.4 I0.7 J1.2124
G2 X28.51 Y5.0224 Z-2.5896 I1.3979 J-0.0758
G2 X30.61 Y3.81 Z-2.9896 I0.7 J-1.2124
G2 X28.51 Y2.5976 Z-3.3896 I-1.4 J0.0
G2 X27.8121 Y3.8858 Z-3.6 I0.7 J1.2124
G2 X28.51 Y5.0224 I1.3979 J-0.0758
G2 X30.61 Y3.81 I0.7 J-1.2124
G2 X28.51 Y2.5976 I-1.4 J0.0
G2 X27.8121 Y3.8858 I0.7 J1.2124
G0 Z3.0
G0 Y-1.37
G0 Z1.0
G1 F50.0 Z0.0
G1 F150.0 X73.66 Z-0.2006
G3 X75.03 Y0.0 Z-0.2101 I0.0 J1.37
G1 Y5.715 Z-0.2351
G3 X73.66 Y7.085 Z-0.2445 I-1.37 J0.0
G1 X68.58 Z-0.2667
G2 X67.41 Y8.255 Z-0.2748 I0.0 J1.17
G1 Y15.875 Z-0.3081
G2 X68.58 Y17.045 Z-0.3162 I1.17 J0.0
G1 X73.66 Z-0.3384
G3 X75.03 Y18.415 Z-0.3478 I0.0 J1.37
G1 Y40.64 Z-0.4451
G3 X73.66 Y42.01 Z-0.4545 I-1.37 J0.0
G1 X-11.97 Z-0.8292
G3 X-13.34 Y40.64 Z-0.8386 I0.0 J-1.37
G1 Y0.0 Z-1.0165
G3 X-11.97 Y-1.37 Z-1.0259 I1.37 J0.0
G1 X27.8121 Z-1.2
G1 X73.66 Z-1.4006
G3 X75.03 Y0.0 Z-1.4101 I0.0 J1.37
G1 Y5.715 Z-1.4351
G3 X73.66 Y7.085 Z-1.4445 I-1.37 J0.0
G1 X68.58 Z-1.4667
G2 X67.41 Y8.255 Z-1.4748 I0.0 J1.17
G1 Y15.875 Z-1.5081
G2 X68.58 Y17.045 Z-1.5162 I1.17 J0.0
G1 X73.66 Z-1.5384
G3 X75.03 Y18.415 Z-1.5478 I0.0 J1.37
G1 Y40.64 Z-1.6451
G3 X73.66 Y42.01 Z-1.6545 I-1.37 J0.0
G1 X-11.97 Z-2.0292
G3 X-13.34 Y40.64 Z-2.0386 I0.0 J-1.37
G1 Y0.0 Z-2.2165
G3 X-11.97 Y-1.37 Z-2.2259 I1.37 J0.0
G1 X27.8121 Z-2.4
G1 X73.66 Z-2.6006
G3 X75.03 Y0.0 Z-2.6101 I0.0 J1.37
G1 Y5.715 Z-2.6351
G3 X73.66 Y7.085 Z-2.6445 I-1.37 J0.0
G1 X68.58 Z-2.6667
G2 X67.41 Y8.255 Z-2.6748 I0.0 J1.17
G1 Y15.875 Z-2.7081
G2 X68.58 Y17.045 Z-2.7162 I1.17 J0.0
G1 X73.66 Z-2.7384
G3 X75.03 Y18.415 Z-2.7478 I0.0 J1.37
G1 Y40.64 Z-2.8451
G3 X73.66 Y42.01 Z-2.8545 I-1.37 J0.0
G1 X-11.97 Z-3.2292
G3 X-13.34 Y40.64 Z-3.2386 I0.0 J-1.37
G1 Y0.0 Z-3.4165
G3 X-11.97 Y-1.37 Z-3.4259 I1.37 J0.0
G1 X27.8121 Z-3.6
G1 X73.66
G3 X75.03 Y0.0 I0.0 J1.37
G1 Y5.715
G3 X73.66 Y7.085 I-1.37 J0.0
G1 X68.58
G2 X67.41 Y8.255 I0.0 J1.17
G1 Y15.875
G2 X68.58 Y17.045 I1.17 J0.0
G1 X73.66
G3 X75.03 Y18.415 I0.0 J1.37
G1 Y40.64
G3 X73.66 Y42.01 I-1.37 J0.0
G1 X-11.97
G3 X-13.34 Y40.64 I0.0 J-1.37
G1 Y0.0
G3 X-11.97 Y-1.37 I1.37 J0.0
G1 X27.8121
G0 Z3.0
M5
M30
